StripePaymentSheet/StripePaymentSheet/Resources/StripePaymentSheet.xcassets/Carousel/carousel_card_unionpay.imageset/unionPayLight.svg

<svg fill="none" height="40" viewBox="0 0 56 40" width="56" xmlns="http://www.w3.org/2000/svg"><path d="m16.4385 8h9.4885c1.3247 0 2.1462 1.07905 1.8386 2.4073l-4.4116 18.958c-.3112 1.3247-1.6371 2.4049-2.9617 2.4049h-9.4886c-1.32226 0-2.14615-1.0802-1.83973-2.4049l4.41873-18.958c.3053-1.32825 1.6299-2.4073 2.9558-2.4073z" fill="#e21836"/><path d="m25.1349 8h10.9086c1.3294 0 .7332 1.07905.4161 2.4073l-4.4116 18.958c-.31 1.3247-.2135 2.4049-1.5393 2.4049h-10.9134c-1.327 0-2.1462-1.0802-1.8362-2.4049l4.4116-18.958c.3172-1.32825 1.6395-2.4073 2.9642-2.4073z" fill="#00447c"/><path d="m35.6107 8h9.4861c1.3259 0 2.1462 1.07905 1.8386 2.4073l-4.4116 18.958c-.3112 1.3247-1.6383 2.4049-2.9641 2.4049h-9.4862c-1.327 0-2.1462-1.0802-1.8386-2.4049l4.4117-18.958c.3147-1.32825 1.6382-2.4073 2.9641-2.4073z" fill="#007b84"/><path d="m18.9152 14.08c-.9753.0108-1.2639 0-1.3557-.0214-.0358.1633-.6951 3.2002-.6951 3.2026-.1419.614-.2456 1.0528-.5962 1.3354-.1975.1611-.4463.2457-.7011.2384-.4316 0-.6844-.2146-.7261-.6224l-.0036-.1347s.1324-.8227.1324-.8275c0-.0047.6903-2.7674.8143-3.1334.0034-.0121.0058-.0245.0072-.037-1.345.0119-1.5834 0-1.5989-.0214-.0096.0298-.0429.2015-.0429.2015l-.7071 3.1143-.0596.2647-.1192.8645c-.007.2241.0452.4462.1514.6438.3207.5616 1.2376.6451 1.7563.6451.6689 0 1.2948-.1419 1.7193-.4007.7345-.434.9276-1.1136 1.0981-1.7169l.0799-.31s.7154-2.8735.8347-3.2479c.0024-.0128.0064-.0252.0119-.037zm2.4216 2.3191c-.2654.0051-.5267.0664-.7667.18-.1025.0525-.1991.1121-.3004.1729l.0918-.3326-.0513-.0561c-.5962.1193-.7297.1371-1.2818.2158l-.0465.0298c-.0782.665-.1977 1.3244-.3577 1.9745-.0906.3852-.1848.7691-.279 1.153l.0251.0489c.5651-.031.7368-.031 1.2281-.0226l.0405-.043c.062-.3195.0704-.3946.2087-1.0421.0644-.3076.2003-.9824.2671-1.2221.1096-.0642.2314-.1048.3577-.1192.2754 0 .2384.2384.2313.3362-.012.161-.1193.6856-.2158 1.1363l-.068.2909c-.0489.2146-.1014.4233-.149.6367l.0214.0429c.5568-.031.7273-.031 1.2031-.0226l.056-.0429c.0859-.4996.1109-.6332.2635-1.3605l.0763-.3338c.1491-.6534.2242-.9849.1121-1.2555-.118-.2993-.4042-.3697-.6665-.3697zm2.7054.6844c-.2969.0572-.4853.0954-.6737.1192-.1884.0239-.3672.0573-.6534.0966l-.0226.0203-.0215.0167c-.0298.2134-.0501.3982-.0894.614-.0394.2158-.0859.4769-.1693.8442-.0332.1622-.0786.3216-.136.4769-.0585.1535-.1079.3104-.1478.4698l.0167.025.0143.0227c.2671-.0119.4423-.0215.6224-.0227.18-.0012.366 0 .6534 0l.025-.0202.0274-.0227c.0418-.248.0477-.3148.074-.4364.0262-.1216.0679-.31.1752-.7905.0501-.2253.1062-.4507.1586-.6808.0525-.2301.1109-.4555.1658-.6808l-.0084-.0275zm0-.9229c-.2695-.1585-.7416-.1085-1.06.1109s-.3577.5199-.0847.6808c.2731.161.7393.1085 1.0541-.112.3147-.2206.3624-.527.0965-.6844zm1.6335 3.6736c.5449 0 1.1029-.1502 1.5226-.5962.3231-.3577.4769-.899.5234-1.1196.1669-.7332.037-1.0731-.1264-1.2841-.2492-.3184-.688-.4209-1.1434-.4209-.2731 0-.9253.0274-1.4308.4972-.3661.3386-.5354.7989-.6367 1.2388-.1014.44-.2218 1.2579.5222 1.5584.2466.0884.5072.1312.7691.1264zm-.043-1.6502c.1264-.5556.2743-1.0206.6522-1.0206.2969 0 .3184.3458.186.9038-.0238.1192-.1311.583-.2778.7786-.0355.0659-.0867.1222-.1491.1638s-.134.0672-.2086.0746c-.0405 0-.2766 0-.2802-.3505.0044-.1856.0304-.3701.0775-.5497zm3.4494 1.5787.043-.043c.0596-.3195.0703-.3946.2039-1.0421.0667-.3076.205-.9813.2694-1.2221.1096-.0644.2314-.105.3577-.1192.2743 0 .2385.2384.2301.3362-.0516.3822-.1233.7615-.2146 1.1363l-.0656.2909c-.05.2146-.1037.4233-.1514.6367l.0203.0429c.5592-.0298.7225-.0298 1.2018-.0226l.0573-.0429c.0846-.4996.1073-.6332.2635-1.3605l.0751-.3338c.1502-.6546.2253-.9849.1192-1.2555-.1192-.3029-.4101-.3756-.6701-.3756-.2654.0049-.5267.0663-.7666.18-.1002.0525-.2003.1121-.2993.1729l.0859-.3327-.0454-.056c-.5961.1192-.7332.1371-1.2841.2158l-.0429.0298c-.0795.6648-.1989 1.3241-.3577 1.9745-.0894.3851-.1836.7738-.2778 1.1578l.025.0488c.564-.0238.7333-.0238 1.2233-.0166zm4.1076.0214c.0358-.1705.2444-1.1923.2456-1.1923s.1777-.7464.1896-.7738c.0305-.0423.068-.079.1109-.1085h.0823c.7774 0 1.6537 0 2.3417-.5056.4779-.3658.808-.8915.93-1.4809.0414-.169.063-.3422.0644-.5162.0089-.2309-.0563-.4586-.186-.6498-.3506-.4901-1.0493-.4996-1.8541-.5032h-.3982c-1.0314.0131-1.4451.0095-1.6144-.0119-.0143.0751-.0418.2086-.0418.2086s-.3696 1.7134-.3696 1.7158l-.9252 3.8154c.9002-.0143 1.2698-.0143 1.4248.0024zm.6844-3.0416s.3982-1.7086.3911-1.7027l.0131-.087v-.0668l.1562.0167.8346.0704c.3196.1192.4507.4435.3577.8596-.0365.1808-.1128.3512-.2234.4989-.1105.1476-.2525.2688-.4157.3548-.2611.1312-.5806.1419-.9097.1419h-.2134zm2.4467 1.4737c-.1038.4424-.223 1.2508.5162 1.5393.2082.0911.4349.132.6618.1192.2364-.0257.4581-.1274.6319-.2897-.0179.0668-.0358.1335-.0525.2015l.0334.0429c.5318-.0214.6975-.0214 1.2734-.0179l.0525-.0393c.0835-.4948.1633-.9753.3815-1.922.1073-.4531.2135-.9026.3232-1.3545l-.0179-.0489c-.5962.1097-.7536.1335-1.3259.2146l-.0441.0358c-.006.0453-.0119.0894-.0167.1335-.0951-.1568-.2399-.2772-.4114-.3422-.2551-.1001-.8525.0286-1.3664.496-.3672.3351-.5413.7917-.639 1.2317zm1.2495.0262c.1276-.5449.2742-1.0063.6534-1.0063.2385 0 .366.2218.3398.5962-.0203.0942-.0417.1931-.0679.3052-.0382.1622-.0799.3231-.1193.4841-.0337.1002-.0811.1953-.1407.2826-.0579.0667-.1287.121-.2083.1596-.0795.0385-.166.0605-.2543.0645-.0381 0-.2718 0-.2802-.3445.0047-.1829.0307-.3646.0775-.5414zm6.5268-1.8004-.0453-.0524c-.589.1192-.6951.1383-1.2364.211l-.0406.0405c-.0012.0085-.0032.0169-.0059.0251v-.0096c-.4031.9301-.3911.7297-.7154 1.4606 0-.0333 0-.0536 0-.0894l-.0823-1.5858-.0513-.0524c-.6176.1192-.6319.1383-1.2019.211l-.0441.0405c-.0046.0205-.0078.0412-.0095.062v.0084c.0567.2834.0985.5695.1252.8573.0334.2814.0775.5651.1109.8429.056.4662.0882.6952.1562 1.407-.384.6343-.477.8752-.8466 1.4308l-.2611.4125c-.0216.0383-.0551.0684-.0954.0859-.0544.0203-.1126.0284-.1705.0238h-.1443l-.2146.7154.7369.0131c.1724.0097.3439-.0301.4945-.1146s.274-.2102.3556-.3623l.4638-.7941h-.0071l.0489-.056c.31-.6642 2.6803-4.7312 2.6803-4.7312zm-7.7763 9.3836h-.3124l1.1565-3.8273h.3839l.1193-.3935.0119.4376c-.0143.2706.1991.5115.7583.4769h.6486l.2218-.7368h-.2384c-.1395 0-.2051-.0358-.1968-.1121l-.0119-.446h-1.2019c-.3875.0084-1.55.037-1.7801.1002-.2081.0649-.4048.1618-.5831.2873l.1193-.3946h-1.122l-.2385.7833-1.1684 3.8835h-.2278l-.2229.7309h2.2344l-.0751.2444h1.1005l.0739-.2444h.3088zm-.9169-3.0499c-.1749.0574-.3464.1242-.5139.2003l.2968-.9777h.8919l-.2158.7154c-.1545.0081-.308.0288-.459.062zm.0166 1.3974s-.2802.0357-.4638.0775c-.1786.065-.353.141-.5222.2277l.3076-1.0171h.8954zm-.4995 1.6609h-.8943l.2599-.8585h.8907zm2.1533-2.3728h1.2889l-.1848.5962h-1.3056l-.1967.6546h1.1422l-.8644 1.2186c-.0408.0667-.1024.1182-.1753.1466-.0729.0414-.1547.0643-.2385.0668h-.3171l-.217.7154h.8286c.1723.0054.3431-.0334.4961-.1127s.2831-.1965.3779-.3404l.5962-.812.1276.8251c.011.06.0362.1166.0732.1651.0371.0485.0852.0875.1402.1139.0872.0595.1859.1001.2897.1192.13.006.2242.0096.2862.0096h.4161l.2444-.8036h-.1609c-.0947.0048-.1893-.0102-.2778-.0442-.0259-.0536-.0401-.1121-.0418-.1717l-.1287-.8262h-.5294l.2313-.2767h1.3032l.2015-.6545h-1.2126l.1872-.5962h1.203l.223-.7404h-3.5865zm-10.8847 2.5421.3004-1.0004h1.2365l.2265-.744h-1.2376l.1884-.6164h1.209l.2241-.7154h-3.0249l-.2194.7154h.6868l-.1836.6164h-.6892l-.2277.7571h.6868l-.4007 1.3235c-.0189.0555-.0219.1152-.0086.1723.0132.0571.0423.1094.0838.1508.0232.0414.055.0772.0933.1052.0382.028.082.0474.1284.057.1036.0272.2101.0416.3172.0429h1.3938l.248-.8239-.6176.0847c-.1192-.006-.4495-.0167-.4137-.1252zm.1418-4.7896-.3135.5664c-.0413.0924-.1033.174-.1813.2384-.0886.0367-.1847.0514-.2802.043h-.1633l-.2194.7225h.5437c.1943-.0031.3851-.0521.5568-.1431.1026-.0548.13-.0238.2099-.1001l.1836-.1586h1.6943l.2253-.7547h-1.2412l.217-.4114zm2.5039 4.8051c-.0286-.0417-.0083-.1192.0358-.2683l.4626-1.5357h1.6478c.2385 0 .4138-.006.527-.0143.1394-.0185.2738-.0638.3959-.1336.1185-.0608.2182-.1527.2885-.2658.1281-.1989.2242-.4165.285-.6451l.5818-1.9411-1.7098.0107c-.2567.0363-.5105.0909-.7595.1634-.2016.0982-.3919.2182-.5675.3577l.1538-.5318h-1.0564l-1.4797 4.9076c-.0411.1348-.073.2722-.0954.4114 0 .0894.1133.1788.1872.2456.074.0668.2194.056.3458.0668.1264.0107.3195.0155.5783.0155h.812l.2492-.8418-.7262.0691c-.0301.0011-.06-.0049-.0873-.0176-.0274-.0126-.0514-.0315-.0701-.0551zm.7977-2.8377h1.7324l-.1108.3445c-.0762-.0067-.1528-.0067-.229 0h-1.4999zm.347-1.1566h1.7467l-.1264.4149s-.8227-.0083-.9538.0167c-.3371.0537-.6542.1951-.9193.4102zm1.3115 2.6565c-.0094.0429-.0339.081-.0691.1073-.055.026-.116.0367-.1765.031h-.2468l.0143-.4209h-1.0266l-.0405 2.0544c0 .1478.0119.2385.1192.3028.1073.0644.4424.0966.8931.0966h.6426l.2325-.769-.5604.031-.186.0107c-.0285-.0104-.0545-.0266-.0763-.0477-.0238-.0238-.0644-.0095-.0572-.1574v-.527l.5866-.0238c.1033.0068.207-.0076.3046-.0422.0976-.0347.187-.0889.263-.1593.0986-.0928.1647-.2149.1883-.3482l.099-.4662h-.8072z" fill="#fefefe"/></svg>

<svg width="56" height="40" viewBox="0 0 56 40" fill="none" xmlns="http://www.w3.org/2000/svg">
<path d="M16.4385 8H25.927C27.2517 8 28.0732 9.07905 27.7656 10.4073L23.354 29.3653C23.0428 30.69 21.7169 31.7702 20.3923 31.7702H10.9037C9.58144 31.7702 8.75755 30.69 9.06397 29.3653L13.4827 10.4073C13.788 9.07905 15.1126 8 16.4385 8Z" fill="#E21836"/>
<path d="M25.1349 8H36.0435C37.3729 8 36.7767 9.07905 36.4596 10.4073L32.048 29.3653C31.738 30.69 31.8345 31.7702 30.5087 31.7702H19.5953C18.2683 31.7702 17.4491 30.69 17.7591 29.3653L22.1707 10.4073C22.4879 9.07905 23.8102 8 25.1349 8Z" fill="#00447C"/>
<path d="M35.6107 8H45.0968C46.4227 8 47.243 9.07905 46.9354 10.4073L42.5238 29.3653C42.2126 30.69 40.8855 31.7702 39.5597 31.7702H30.0735C28.7465 31.7702 27.9273 30.69 28.2349 29.3653L32.6466 10.4073C32.9613 9.07905 34.2848 8 35.6107 8Z" fill="#007B84"/>
<path d="M18.9152 14.08C17.9399 14.0908 17.6513 14.08 17.5595 14.0586C17.5237 14.2219 16.8644 17.2588 16.8644 17.2612C16.7225 17.8752 16.6188 18.314 16.2682 18.5966C16.0707 18.7577 15.8219 18.8423 15.5671 18.835C15.1355 18.835 14.8827 18.6204 14.841 18.2126L14.8374 18.0779C14.8374 18.0779 14.9698 17.2552 14.9698 17.2504C14.9698 17.2457 15.6601 14.483 15.7841 14.117C15.7875 14.1049 15.7899 14.0925 15.7913 14.08C14.4463 14.0919 14.2079 14.08 14.1924 14.0586C14.1828 14.0884 14.1495 14.2601 14.1495 14.2601L13.4424 17.3744L13.3828 17.6391L13.2636 18.5036C13.2566 18.7277 13.3088 18.9498 13.415 19.1474C13.7357 19.709 14.6526 19.7925 15.1713 19.7925C15.8402 19.7925 16.4661 19.6506 16.8906 19.3918C17.6251 18.9578 17.8182 18.2782 17.9887 17.6749L18.0686 17.3649C18.0686 17.3649 18.784 14.4914 18.9033 14.117C18.9057 14.1042 18.9097 14.0918 18.9152 14.08V14.08ZM21.3368 16.3991C21.0714 16.4042 20.8101 16.4655 20.5701 16.5791C20.4676 16.6316 20.371 16.6912 20.2697 16.752L20.3615 16.4194L20.3102 16.3633C19.714 16.4826 19.5805 16.5004 19.0284 16.5791L18.9819 16.6089C18.9037 17.2739 18.7842 17.9333 18.6242 18.5834C18.5336 18.9686 18.4394 19.3525 18.3452 19.7364L18.3703 19.7853C18.9354 19.7543 19.1071 19.7543 19.5984 19.7627L19.6389 19.7197C19.7009 19.4002 19.7093 19.3251 19.8476 18.6776C19.912 18.37 20.0479 17.6952 20.1147 17.4555C20.2243 17.3913 20.3461 17.3507 20.4724 17.3363C20.7478 17.3363 20.7108 17.5747 20.7037 17.6725C20.6917 17.8335 20.5844 18.3581 20.4879 18.8088L20.4199 19.0997C20.371 19.3143 20.3185 19.523 20.2709 19.7364L20.2923 19.7793C20.8491 19.7483 21.0196 19.7483 21.4954 19.7567L21.5514 19.7138C21.6373 19.2142 21.6623 19.0806 21.8149 18.3533L21.8912 18.0195C22.0403 17.3661 22.1154 17.0346 22.0033 16.764C21.8853 16.4647 21.5991 16.3943 21.3368 16.3943V16.3991ZM24.0422 17.0835C23.7453 17.1407 23.5569 17.1789 23.3685 17.2027C23.1801 17.2266 23.0013 17.26 22.7151 17.2993L22.6925 17.3196L22.671 17.3363C22.6412 17.5497 22.6209 17.7345 22.5816 17.9503C22.5422 18.1661 22.4957 18.4272 22.4123 18.7945C22.3791 18.9567 22.3337 19.1161 22.2763 19.2714C22.2178 19.4249 22.1684 19.5818 22.1285 19.7412L22.1452 19.7662L22.1595 19.7889C22.4266 19.777 22.6018 19.7674 22.7819 19.7662C22.9619 19.765 23.1479 19.7662 23.4353 19.7662L23.4603 19.746L23.4877 19.7233C23.5295 19.4753 23.5354 19.4085 23.5617 19.2869C23.5879 19.1653 23.6296 18.9769 23.7369 18.4964C23.787 18.2711 23.8431 18.0457 23.8955 17.8156C23.948 17.5855 24.0064 17.3601 24.0613 17.1348L24.0529 17.1073L24.0422 17.0835ZM24.0422 16.1606C23.7727 16.0021 23.3006 16.0521 22.9822 16.2715C22.6638 16.4909 22.6245 16.7914 22.8975 16.9523C23.1706 17.1133 23.6368 17.0608 23.9516 16.8403C24.2663 16.6197 24.314 16.3133 24.0481 16.1559L24.0422 16.1606ZM25.6757 19.8342C26.2206 19.8342 26.7786 19.684 27.1983 19.238C27.5214 18.8803 27.6752 18.339 27.7217 18.1184C27.8886 17.3852 27.7587 17.0453 27.5953 16.8343C27.3461 16.5159 26.9073 16.4134 26.4519 16.4134C26.1788 16.4134 25.5266 16.4408 25.0211 16.9106C24.655 17.2492 24.4857 17.7095 24.3844 18.1494C24.283 18.5894 24.1626 19.4073 24.9066 19.7078C25.1532 19.7962 25.4138 19.839 25.6757 19.8342V19.8342ZM25.6327 18.184C25.7591 17.6284 25.907 17.1634 26.2849 17.1634C26.5818 17.1634 26.6033 17.5092 26.4709 18.0672C26.4471 18.1864 26.3398 18.6502 26.1931 18.8458C26.1576 18.9117 26.1064 18.968 26.044 19.0096C25.9816 19.0512 25.91 19.0768 25.8354 19.0842C25.7949 19.0842 25.5588 19.0842 25.5552 18.7337C25.5596 18.5481 25.5856 18.3636 25.6327 18.184V18.184ZM29.0821 19.7627L29.1251 19.7197C29.1847 19.4002 29.1954 19.3251 29.329 18.6776C29.3957 18.37 29.534 17.6963 29.5984 17.4555C29.708 17.3911 29.8298 17.3505 29.9561 17.3363C30.2304 17.3363 30.1946 17.5747 30.1862 17.6725C30.1346 18.0547 30.0629 18.434 29.9716 18.8088L29.906 19.0997C29.856 19.3143 29.8023 19.523 29.7546 19.7364L29.7749 19.7793C30.3341 19.7495 30.4974 19.7495 30.9767 19.7567L31.034 19.7138C31.1186 19.2142 31.1413 19.0806 31.2975 18.3533L31.3726 18.0195C31.5228 17.3649 31.5979 17.0346 31.4918 16.764C31.3726 16.4611 31.0817 16.3884 30.8217 16.3884C30.5563 16.3933 30.295 16.4547 30.0551 16.5684C29.9549 16.6209 29.8548 16.6805 29.7558 16.7413L29.8417 16.4086L29.7963 16.3526C29.2002 16.4718 29.0631 16.4897 28.5122 16.5684L28.4693 16.5982C28.3898 17.263 28.2704 17.9223 28.1116 18.5727C28.0222 18.9578 27.928 19.3465 27.8338 19.7305L27.8588 19.7793C28.4228 19.7555 28.5921 19.7555 29.0821 19.7627ZM33.1897 19.7841C33.2255 19.6136 33.4341 18.5918 33.4353 18.5918C33.4365 18.5918 33.613 17.8454 33.6249 17.818C33.6554 17.7757 33.6929 17.739 33.7358 17.7095H33.8181C34.5955 17.7095 35.4718 17.7095 36.1598 17.2039C36.6377 16.8381 36.9678 16.3124 37.0898 15.723C37.1312 15.554 37.1528 15.3808 37.1542 15.2068C37.1631 14.9759 37.0979 14.7482 36.9682 14.557C36.6176 14.0669 35.9189 14.0574 35.1141 14.0538H34.7159C33.6845 14.0669 33.2708 14.0633 33.1015 14.0419C33.0872 14.117 33.0597 14.2505 33.0597 14.2505C33.0597 14.2505 32.6901 15.9639 32.6901 15.9663L31.7649 19.7817C32.6651 19.7674 33.0347 19.7674 33.1897 19.7841V19.7841ZM33.8741 16.7425C33.8741 16.7425 34.2723 15.0339 34.2652 15.0398L34.2783 14.9528V14.886L34.4345 14.9027L35.2691 14.9731C35.5887 15.0923 35.7198 15.4166 35.6268 15.8327C35.5903 16.0135 35.514 16.1839 35.4034 16.3316C35.2929 16.4792 35.1509 16.6004 34.9877 16.6864C34.7266 16.8176 34.4071 16.8283 34.078 16.8283H33.8646L33.8741 16.7425ZM36.3208 18.2162C36.217 18.6586 36.0978 19.467 36.837 19.7555C37.0452 19.8466 37.2719 19.8875 37.4988 19.8747C37.7352 19.849 37.9569 19.7473 38.1307 19.585C38.1128 19.6518 38.0949 19.7185 38.0782 19.7865L38.1116 19.8294C38.6434 19.808 38.8091 19.808 39.385 19.8115L39.4375 19.7722C39.521 19.2774 39.6008 18.7969 39.819 17.8502C39.9263 17.3971 40.0325 16.9476 40.1422 16.4957L40.1243 16.4468C39.5281 16.5565 39.3707 16.5803 38.7984 16.6614L38.7543 16.6972C38.7483 16.7425 38.7424 16.7866 38.7376 16.8307C38.6425 16.6739 38.4977 16.5535 38.3262 16.4885C38.0711 16.3884 37.4737 16.5171 36.9598 16.9845C36.5926 17.3196 36.4185 17.7762 36.3208 18.2162V18.2162ZM37.5703 18.2424C37.6979 17.6975 37.8445 17.2361 38.2237 17.2361C38.4622 17.2361 38.5897 17.4579 38.5635 17.8323C38.5432 17.9265 38.5218 18.0254 38.4956 18.1375C38.4574 18.2997 38.4157 18.4606 38.3763 18.6216C38.3426 18.7218 38.2952 18.8169 38.2356 18.9042C38.1777 18.9709 38.1069 19.0252 38.0273 19.0638C37.9478 19.1023 37.8613 19.1243 37.773 19.1283C37.7349 19.1283 37.5012 19.1283 37.4928 18.7838C37.4975 18.6009 37.5235 18.4192 37.5703 18.2424V18.2424ZM44.0971 16.442L44.0518 16.3896C43.4628 16.5088 43.3567 16.5279 42.8154 16.6006L42.7748 16.6411C42.7736 16.6496 42.7716 16.658 42.7689 16.6662V16.6566C42.3658 17.5867 42.3778 17.3863 42.0535 18.1172C42.0535 18.0839 42.0535 18.0636 42.0535 18.0278L41.9712 16.442L41.9199 16.3896C41.3023 16.5088 41.288 16.5279 40.718 16.6006L40.6739 16.6411C40.6693 16.6616 40.6661 16.6823 40.6644 16.7031V16.7115C40.7211 16.9949 40.7629 17.281 40.7896 17.5688C40.823 17.8502 40.8671 18.1339 40.9005 18.4117C40.9565 18.8779 40.9887 19.1069 41.0567 19.8187C40.6727 20.453 40.5797 20.6939 40.2101 21.2495L39.949 21.662C39.9274 21.7003 39.8939 21.7304 39.8536 21.7479C39.7992 21.7682 39.741 21.7763 39.6831 21.7717H39.5388L39.3242 22.4871L40.0611 22.5002C40.2335 22.5099 40.405 22.4701 40.5556 22.3856C40.7062 22.3011 40.8296 22.1754 40.9112 22.0233L41.375 21.2292H41.3679L41.4168 21.1732C41.7268 20.509 44.0971 16.442 44.0971 16.442V16.442ZM36.3208 25.8256H36.0084L37.1649 21.9983H37.5488L37.6681 21.6048L37.68 22.0424C37.6657 22.313 37.8791 22.5539 38.4383 22.5193H39.0869L39.3087 21.7825H39.0703C38.9308 21.7825 38.8652 21.7467 38.8735 21.6704L38.8616 21.2244H37.6597C37.2722 21.2328 36.1097 21.2614 35.8796 21.3246C35.6715 21.3895 35.4748 21.4864 35.2965 21.6119L35.4158 21.2173H34.2938L34.0553 22.0006L32.8869 25.8841H32.6591L32.4362 26.615H34.6706L34.5955 26.8594H35.696L35.7699 26.615H36.0787L36.3208 25.8256ZM35.4039 22.7757C35.229 22.8331 35.0575 22.8999 34.89 22.976L35.1868 21.9983H36.0787L35.8629 22.7137C35.7084 22.7218 35.5549 22.7425 35.4039 22.7757V22.7757ZM35.4205 24.1731C35.4205 24.1731 35.1403 24.2088 34.9567 24.2506C34.7781 24.3156 34.6037 24.3916 34.4345 24.4783L34.7421 23.4612H35.6375L35.4205 24.1731ZM34.921 25.834H34.0267L34.2866 24.9755H35.1773L34.921 25.834ZM37.0743 23.4612H38.3632L38.1784 24.0574H36.8728L36.6761 24.712H37.8183L36.9539 25.9306C36.9131 25.9973 36.8515 26.0488 36.7786 26.0772C36.7057 26.1186 36.6239 26.1415 36.5401 26.144H36.223L36.006 26.8594H36.8346C37.0069 26.8648 37.1777 26.826 37.3307 26.7467C37.4837 26.6674 37.6138 26.5502 37.7086 26.4063L38.3048 25.5943L38.4324 26.4194C38.4434 26.4794 38.4686 26.536 38.5056 26.5845C38.5427 26.633 38.5908 26.672 38.6458 26.6984C38.733 26.7579 38.8317 26.7985 38.9355 26.8176C39.0655 26.8236 39.1597 26.8272 39.2217 26.8272H39.6378L39.8822 26.0236H39.7213C39.6266 26.0284 39.532 26.0134 39.4435 25.9794C39.4176 25.9258 39.4034 25.8673 39.4017 25.8077L39.273 24.9815H38.7436L38.9749 24.7048H40.2781L40.4796 24.0503H39.267L39.4542 23.4541H40.6572L40.8802 22.7137H37.2937L37.0743 23.4612ZM26.1896 26.0033L26.49 25.0029H27.7265L27.953 24.2589H26.7154L26.9038 23.6425H28.1128L28.3369 22.9271H25.312L25.0926 23.6425H25.7794L25.5958 24.2589H24.9066L24.6789 25.016H25.3657L24.965 26.3395C24.9461 26.395 24.9431 26.4547 24.9564 26.5118C24.9696 26.5689 24.9987 26.6212 25.0402 26.6626C25.0634 26.704 25.0952 26.7398 25.1335 26.7678C25.1717 26.7958 25.2155 26.8152 25.2619 26.8248C25.3655 26.852 25.472 26.8664 25.5791 26.8677H26.9729L27.2209 26.0438L26.6033 26.1285C26.4841 26.1225 26.1538 26.1118 26.1896 26.0033ZM26.3314 21.2137L26.0179 21.7801C25.9766 21.8725 25.9146 21.9541 25.8366 22.0185C25.748 22.0552 25.6519 22.0699 25.5564 22.0615H25.3931L25.1737 22.784H25.7174C25.9117 22.7809 26.1025 22.7319 26.2742 22.6409C26.3768 22.5861 26.4042 22.6171 26.4841 22.5408L26.6677 22.3822H28.362L28.5873 21.6275H27.3461L27.5631 21.2161L26.3314 21.2137ZM28.8353 26.0188C28.8067 25.9771 28.827 25.8996 28.8711 25.7505L29.3337 24.2148H30.9815C31.22 24.2148 31.3953 24.2088 31.5085 24.2005C31.6479 24.182 31.7823 24.1367 31.9044 24.0669C32.0229 24.0061 32.1226 23.9142 32.1929 23.8011C32.321 23.6022 32.4171 23.3846 32.4779 23.156L33.0597 21.2149L31.3499 21.2256C31.0932 21.2619 30.8394 21.3165 30.5904 21.389C30.3888 21.4872 30.1985 21.6072 30.0229 21.7467L30.1767 21.2149H29.1203L27.6406 26.1225C27.5995 26.2573 27.5676 26.3947 27.5452 26.5339C27.5452 26.6233 27.6585 26.7127 27.7324 26.7795C27.8064 26.8463 27.9518 26.8355 28.0782 26.8463C28.2046 26.857 28.3977 26.8618 28.6565 26.8618H29.4685L29.7177 26.02L28.9915 26.0891C28.9614 26.0902 28.9315 26.0842 28.9042 26.0715C28.8768 26.0589 28.8528 26.04 28.8341 26.0164L28.8353 26.0188ZM29.633 23.1811H31.3654L31.2546 23.5256C31.1784 23.5189 31.1018 23.5189 31.0256 23.5256H29.5257L29.633 23.1811ZM29.98 22.0245H31.7267L31.6003 22.4394C31.6003 22.4394 30.7776 22.4311 30.6465 22.4561C30.3094 22.5098 29.9923 22.6512 29.7272 22.8663L29.98 22.0245ZM31.2915 24.681C31.2821 24.7239 31.2576 24.762 31.2224 24.7883C31.1674 24.8143 31.1064 24.825 31.0459 24.8193H30.7991L30.8134 24.3984H29.7868L29.7463 26.4528C29.7463 26.6006 29.7582 26.6913 29.8655 26.7556C29.9728 26.82 30.3079 26.8522 30.7586 26.8522H31.4012L31.6337 26.0832L31.0733 26.1142L30.8873 26.1249C30.8588 26.1145 30.8328 26.0983 30.811 26.0772C30.7872 26.0534 30.7466 26.0677 30.7538 25.9198V25.3928L31.3404 25.369C31.4437 25.3758 31.5474 25.3614 31.645 25.3268C31.7426 25.2921 31.832 25.2379 31.908 25.1675C32.0066 25.0747 32.0727 24.9526 32.0963 24.8193L32.1953 24.3531H31.3881L31.2915 24.681Z" fill="#FEFEFE"/>
</svg>
